projects/flag-game/flags/Aland Islands.svg

<svg viewBox="0 0 1000 654" xmlns="http://www.w3.org/2000/svg"><g stroke-linecap="square" stroke-miterlimit="3.239307"><path d="m0 653.847656v-653.847656h1000v653.847656zm0 0" fill="#0053a5" stroke="#0053a5"/><path d="m307.691406 653.847656v-653.847656h192.308594v653.847656zm0 0" fill="#ffce00" stroke="#ffce00"/><path d="m0 423.078125v-192.308594h1000v192.308594zm0 0" fill="#ffce00" stroke="#ffce00"/><g fill="#d21034" stroke="#d21034"><path d="m365.382812 653.847656v-653.847656h76.925782v653.847656zm0 0"/><path d="m0 365.382812v-76.921874h1000v76.921874zm0 0"/></g></g></svg>

<?xml version="1.0" encoding="UTF-8"?>
<svg xmlns="http://www.w3.org/2000/svg" xmlns:xlink="http://www.w3.org/1999/xlink" viewBox="0 0 1000 654" version="1.1">
<g id="surface74">
<path style="fill-rule:nonzero;fill:rgb(0%,32.548523%,64.704895%);fill-opacity:1;stroke-width:1;stroke-linecap:square;stroke-linejoin:miter;stroke:rgb(0%,32.548523%,64.704895%);stroke-opacity:1;stroke-miterlimit:3.239307;" d="M 0 653.847656 L 0 0 L 1000 0 L 1000 653.847656 Z M 0 653.847656 "/>
<path style="fill-rule:nonzero;fill:rgb(99.998474%,80.783081%,0%);fill-opacity:1;stroke-width:1;stroke-linecap:square;stroke-linejoin:miter;stroke:rgb(99.998474%,80.783081%,0%);stroke-opacity:1;stroke-miterlimit:3.239307;" d="M 307.691406 653.847656 L 307.691406 0 L 500 0 L 500 653.847656 Z M 307.691406 653.847656 "/>
<path style="fill-rule:nonzero;fill:rgb(99.998474%,80.783081%,0%);fill-opacity:1;stroke-width:1;stroke-linecap:square;stroke-linejoin:miter;stroke:rgb(99.998474%,80.783081%,0%);stroke-opacity:1;stroke-miterlimit:3.239307;" d="M 0 423.078125 L 0 230.769531 L 1000 230.769531 L 1000 423.078125 Z M 0 423.078125 "/>
<path style="fill-rule:nonzero;fill:rgb(82.351685%,6.274414%,20.391846%);fill-opacity:1;stroke-width:1;stroke-linecap:square;stroke-linejoin:miter;stroke:rgb(82.351685%,6.274414%,20.391846%);stroke-opacity:1;stroke-miterlimit:3.239307;" d="M 365.382812 653.847656 L 365.382812 0 L 442.308594 0 L 442.308594 653.847656 Z M 365.382812 653.847656 "/>
<path style="fill-rule:nonzero;fill:rgb(82.351685%,6.274414%,20.391846%);fill-opacity:1;stroke-width:1;stroke-linecap:square;stroke-linejoin:miter;stroke:rgb(82.351685%,6.274414%,20.391846%);stroke-opacity:1;stroke-miterlimit:3.239307;" d="M 0 365.382812 L 0 288.460938 L 1000 288.460938 L 1000 365.382812 Z M 0 365.382812 "/>
</g>
</svg>
